;PancakePainter v1.3.0-beta GCODE header start
;Originally generated @ Wed May 17 2017 18:05:51 GMT+0800 (SGT)
;Settings used to generate this file:
;----------------------------------------
;botSpeed: 4620
;flattenResolution: 2
;lineEndPreShutoff: 25
;startWait: 350
;endWait: 250
;shadeChangeWait: 15
;useLineFill: false
;useShortest: true
;shapeFillWidth: 3
;fillSpacing: 10
;fillAngle: 23
;fillGroupThreshold: 27
;useColorSpeed: false
;botColorSpeed: 6600,5280,5280,3300
;----------------------------------------
;W1 X42 Y210 L485 T0 ;Define Workspace of this file
G21 ;Set units to MM
;G1 F4620 ;Set Speed
M107 ;Pump off
G4 P1000 ;Pause for 1000 milliseconds
M84 ;Motors off
G00 X1 Y1 ;Help homing
G28 X0 Y0 ;Home All Axis
;PancakePainter header complete
;Starting stroke path #1/1, segments: 53, length: 2683, color #1
G00 X168.172 Y52.214
M106 ;Pump on
G4 P350 ;Pause for 350 milliseconds
G00 X185.367 Y53.86
G00 X186.319 Y57.22
G00 X191.596 Y59.116
G00 X199.341 Y62.039
G00 X206.989 Y65.369
G00 X211.976 Y68.484
G00 X213.54 Y72.174
G00 X212.016 Y75.757
G00 X205.718 Y81
G00 X190.563 Y86.999
G00 X174.43 Y89.761
G00 X163.792 Y90.387
G00 X160.581 Y90.766
G00 X157.534 Y90.387
G00 X154.238 Y88.164
G00 X150.846 Y84.674
G00 X148.607 Y80.442
G00 X148.773 Y75.994
G00 X152.221 Y70.842
G00 X156.908 Y66.607
G00 X168.849 Y59.44
G00 X181.966 Y55.418
G00 X195.695 Y53.55
G00 X209.473 Y52.84
G00 X213.78 Y52.764
G00 X220.622 Y52.768
G00 X227.834 Y52.964
G00 X233.253 Y53.466
G00 X234.571 Y53.87
G00 X236.932 Y54.774
G00 X240.762 Y57.22
G00 X241.214 Y59.878
G00 X240.454 Y62.638
G00 X237.633 Y67.233
G00 X225.491 Y80.358
G00 X217.992 Y85.223
G00 X209.473 Y87.884
G00 X203.806 Y88.453
G00 X198.209 Y87.884
G00 X194.454 Y84.755
G00 X193.743 Y83.546
G00 X193.829 Y82.252
G00 X212.133 Y77.75
G00 X231.797 Y76.135
G00 X251.72 Y76.17
G00 X270.799 Y76.62
G00 X280.539 Y76.52
G00 X290.198 Y77.245
G00 X299.051 Y80.03
G00 X307.72 Y83.503
G00 X313.352 Y85.381
G00 X317.732 Y86.632
G00 X319.191 Y87.221
G00 X319.61 Y87.884
G00 X316.418 Y88.117
G00 X310.467 Y88.091
G00 X304.706 Y87.961
G00 X302.088 Y87.884
G00 X292.504 Y87.571
G00 X284.016 Y86.581
G00 X275.647 Y84.834
G00 X266.419 Y82.252
G00 X253.277 Y77.871
G00 X248.718 Y77.2
G00 X247.783 Y76.762
G00 X248.271 Y75.994
G00 X253.171 Y73.393
G00 X258.668 Y72.011
G00 X270.173 Y70.988
G00 X287.184 Y70.528
G00 X306.736 Y71.262
G00 X325.998 Y73.11
G00 X342.137 Y75.994
G00 X353.886 Y80.807
G00 X365.291 Y86.632
G00 X380.936 Y92.89
G00 X389.696 Y97.896
G00 X393.451 Y100.399
G00 X394.077 Y101.025
G00 X391.44 Y100.846
G00 X388.445 Y99.148
G00 X379.684 Y96.645
G00 X370.923 Y91.638
G00 X360.285 Y87.884
G00 X326.657 Y77.031
G00 X292.075 Y69.736
G00 X282.063 Y68.484
G00 X278.595 Y67.874
G00 X274.554 Y67.859
G00 X273.784 Y70.825
G00 X274.554 Y74.742
G00 X274.531 Y80.207
G00 X274.598 Y84.085
G00 X274.955 Y88.141
G00 X275.805 Y94.142
G00 X278.491 Y102.521
G00 X279.656 Y106.852
G00 X279.56 Y111.038
G00 X278.027 Y113.447
G00 X275.337 Y115.188
G00 X269.548 Y117.296
G00 X258.315 Y118.134
G00 X247.02 Y116.044
G00 X242.639 Y114.793
G00 X242.639 Y116.044
G00 X242.639 Y121.676
G00 X245.768 Y134.192
G00 X246.221 Y137.685
G00 X246.724 Y142.511
G00 X247.658 Y154.403
G00 X248.117 Y166.358
G00 X248.026 Y171.263
G00 X247.645 Y174.868
G00 X243.891 Y183.629
G00 X242.417 Y185.279
;Nearing path end, moving to preshutoff position
G00 X240.861 Y186.914
M107 ;Pump off
G00 X239.366 Y188.485
G00 X236.23 Y191.61
G00 X234.504 Y193.016
G4 P250 ;Pause for 250 milliseconds
;Completed path #1/1 on color #1
;PancakePainter Footer Start
G4 P1000 ;Pause for 1000 milliseconds
G00 X1 Y1 ;Help homing
G28 X0 Y0 ;Home All Axis
M84 ;Motors off
;PancakePainter Footer Complete
